public/icons/batch-changes.svg

<svg width="18" height="18" viewBox="0 0 18 18" fill="none" xmlns="http://www.w3.org/2000/svg">
<path fill-rule="evenodd" clip-rule="evenodd" d="M5 7.87398C6.40561 7.5122 7.5122 6.40561 7.87398 5H14V6H18V2H14V3H7.87398C7.42994 1.27477 5.86384 0 4 0C1.79086 0 0 1.79086 0 4C0 5.86384 1.27477 7.42994 3 7.87398L3 17H14V18H18V14H14V15H5V11H14V12H18V8H14V9H5V7.87398ZM6 4C6 5.10457 5.10457 6 4 6C2.89543 6 2 5.10457 2 4C2 2.89543 2.89543 2 4 2C5.10457 2 6 2.89543 6 4Z" fill="#A112FF"/>
</svg>

<svg width="18" height="18" fill="none" xmlns="http://www.w3.org/2000/svg"><path fill-rule="evenodd" clip-rule="evenodd" d="M5 7.874A4.007 4.007 0 0 0 7.874 5H14v1h4V2h-4v1H7.874A4.002 4.002 0 0 0 0 4a4.002 4.002 0 0 0 3 3.874V17h11v1h4v-4h-4v1H5v-4h9v1h4V8h-4v1H5V7.874ZM6 4a2 2 0 1 1-4 0 2 2 0 0 1 4 0Z" fill="#A112FF"/></svg>
